X:10269
T:March No3. TLY.021
M:2/2
L:1/8
S:Wm.Tildesley,Swinton,Lancs.1860s.
R:March
O:England.
A:Lancashire.
H:1860.
Z:vmp.Taz Tarry.
K:Bb
F2|B2B>B B>B A>A|B>B F>F D2 z B|c2 c>c c2 c/2d/2e|f>f d>d B2 d>e|!
f2 f>f f2 e>d|e2 e>e e2 d>c|d2 c-B g>fe>d|d2 c4:|!
|:d>e|f2 f>f f2 e>d|g>g e>e c2 d>e|f>f d>d B2 A>B|c>c AA F2 f2|!
g2 b2 f2 d2|B2B>B B2 d/2e/2f|g>-e f>-d e>-c B>A|B6:|
